X: 6
T: No_105_Go_With_Me.krn
%%abc-version 2.0
%%abcx-abcm2ps-target-version 5.9.1 (29 Sep 2008)
%%abc-creator hum2abc beta
%%abcx-conversion-date 2020/08/10 18:54:57
%%humdrum-veritas 1906419792
%%humdrum-veritas-data 4060061512
%%linebreak <none>
%%barnumbers 0
L: 1/8
M: 3/4
K: F clef=bass
C2 [I:setbarnb 1]| 
C4DC | 
C4=B,/_B,/A,/_A,/ ||  
[M:2/4]G,2F,F, | 
F,4- | 
F,2G,2 ||  
[M:3/4]G,4CG, | 
G,4G,/F,/E,/_E,/ ||  
[M:2/4]D,2C,C, ||  
[M:3/4]C,4C,2 | 
F,4CG, | 
G,4G,/F,/E,/_E,/ ||  
[M:2/4]D,2C,C, | 
C,4- | 
C,2CG, | 
CA, A,G, ||  
[M:3/4]C2G,2F,F, | 
F,4G,2 | 
F,4CG, | 
G,4G,/F,/E,/_E,/ ||  
[M:2/4]D,2C,C, | 
C,4 |]  


